build/system/PersonAddSolid.svg

<svg xmlns="http://www.w3.org/2000/svg" fill="none" viewBox="0 0 24 24" focusable="false"><path d="M0 0H24V24H0z"/><path fill="#74767B" fill-rule="evenodd" d="M7.56456 7.96802C7.26365 5.32002 9.33497 3 12 3C14.6651 3 16.7364 5.32002 16.4355 7.96803L16.1734 10.274C15.9322 12.3966 14.1363 14 12 14C9.86377 14 8.06781 12.3966 7.8266 10.274L7.56456 7.96802ZM17.5 13C19.9853 13 22 15.0147 22 17.5C22 19.9853 19.9853 22 17.5 22C15.0147 22 13 19.9853 13 17.5C13 15.0147 15.0147 13 17.5 13ZM15.493 16.85C15.134 16.85 14.843 17.141 14.843 17.5C14.843 17.859 15.134 18.15 15.493 18.15L16.85 18.15L16.85 19.3716C16.85 19.7306 17.141 20.0216 17.5 20.0216C17.859 20.0216 18.15 19.7306 18.15 19.3716L18.15 18.15L19.507 18.15C19.866 18.15 20.157 17.859 20.157 17.5C20.157 17.141 19.866 16.85 19.507 16.85L18.15 16.85L18.15 15.6284C18.15 15.2694 17.859 14.9784 17.5 14.9784C17.141 14.9784 16.85 15.2694 16.85 15.6284L16.85 16.85L15.493 16.85ZM11.8848 16.042C12.0139 15.5434 11.6692 15 11.1541 15L10.1464 15C7.33419 15 4.89931 16.9532 4.28926 19.6984L4.18932 20.1481C4.09217 20.5853 4.42482 21 4.87265 21L11.4658 21C12.0443 21 12.3958 20.317 12.1677 19.7854C11.8667 19.0841 11.7 18.3115 11.7 17.5C11.7 16.9964 11.7642 16.5078 11.8848 16.042Z"/></svg>

<svg xmlns="http://www.w3.org/2000/svg" fill="none" viewBox="0 0 24 24" focusable="false"><path fill="#74767B" fill-rule="evenodd" d="M12 3C9.33 3 7.26 5.32 7.56 7.96l.26 2.31A4.21 4.21 0 0 0 12 14c2.13 0 3.93-1.61 4.17-3.73l.26-2.31A4.46 4.46 0 0 0 12 3m5.5 10a4.5 4.5 0 0 1 4.5 4.5c0 2.48-2.02 4.5-4.5 4.5a4.5 4.5 0 0 1 0-9m-2.01 3.85c-.36 0-.65.29-.65.65 0 .35.29.65.65.65h1.36v1.22c0 .36.29.65.65.65.35 0 .64-.29.64-.65v-1.22h1.36c.36 0 .65-.3.65-.65 0-.36-.29-.65-.65-.65h-1.36v-1.23c0-.36-.29-.65-.64-.65-.36 0-.65.29-.65.65v1.23zm-3.61-.81c.13-.5-.22-1.04-.73-1.04h-1.01c-2.81 0-5.25 1.95-5.86 4.69l-.1.45c-.09.44.24.86.69.86h6.59c.58 0 .93-.69.7-1.22-.3-.7-.46-1.47-.46-2.28 0-.51.06-1 .18-1.46"/></svg>
